X: 33047
T: Pride Of Petravore, The
R: hornpipe
M: 4/4
K: Eminor
|:E2EF G2GA|BcBA G2E2|~D3E ~F3G|ABAG F2D2|
E2EF G2GA|BcBA G2A2|~B3c BAGF|E2B,2 C2B,2:|
|:e2e2 e2e2|dBGA B3c|AGFE FGAB|AGED EFGB|
cdef g3e|dBGA B3A|~B3c BAGF|E2B,2 C2B,2:|

